X:1
T:Miss Ross's Reel
T:Miss Ross's Reel
T:William Marshall
C:William Marshall
L:1/8
Q:1/8=232
M:4/4
K:F
V:1 treble 
V:1
|: A | F/F/F fd cf cA | Bd cA BG GA | F/F/F fd cf cA | Bd cB AF FA | F/F/F fd cf cA | Bd cA BG GA | %7
 F/F/F fd cf cA | Bd cB AF Fe | fg af cf af | df cA BG Ge | fg af bg af | df cB AF Fe | %13
 fg af bg af | cf af bg ga | fc Af df cA | Bd cB AFF :| %17

